dist/svgs/team-calculator.svg

<svg xmlns="http://www.w3.org/2000/svg" viewBox="0 0 512 512"><path d="M491 0q9 0 15 6t6 15v470q0 9-6 15t-15 6H21q-9 0-15-6t-6-15V21q0-9 6-15t15-6h470zM179 363l28-28q13-15 0-30-15-13-30 0l-28 28-27-28q-7-6-15.5-6T92 305q-15 15 0 30l27 28-27 27q-7 7-7 15.5t7 14.5q6 7 15 7 8 0 15-7l27-27 28 27q6 7 15 7t15-7q6-6 6-14.5t-6-15.5zm13-192q21 0 21-22 0-9-5.5-15t-15.5-6h-21v-21q0-22-22-22-9 0-15 6t-6 16v21h-21q-10 0-16 6t-6 15q0 22 22 22h21v21q0 10 6 15.5t15 5.5q22 0 22-21v-21h21zm213 256q22 0 22-22 0-9-6-15t-16-6h-85q-10 0-15.5 6t-5.5 15q0 22 21 22h85zm0-86q22 0 22-21t-22-21h-85q-21 0-21 21t21 21h85zm0-170q22 0 22-22 0-9-6-15t-16-6h-85q-10 0-15.5 6t-5.5 15q0 22 21 22h85z"/></svg>

<?xml version="1.0" encoding="UTF-8" standalone="no"?><svg   xmlns:svg="http://www.w3.org/2000/svg"   xmlns="http://www.w3.org/2000/svg"   version="1.1"   width="512"   height="512"   viewBox="0 0 512 512">  <path     d="M491 0Q500 0 506 6T512 21V491Q512 500 506 506T491 512H21Q12 512 6 506T0 491V21Q0 12 6 6T21 0H491zM179 363L207 335Q220 320 207 305Q192 292 177 305L149 333L122 305Q115 299 106.5 299T92 305Q77 320 92 335L119 363L92 390Q85 397 85 405.5T92 420Q98 427 107 427Q115 427 122 420L149 393L177 420Q183 427 192 427T207 420Q213 414 213 405.5T207 390zM192 171Q213 171 213 149Q213 140 207.5 134T192 128H171V107Q171 85 149 85Q140 85 134 91T128 107V128H107Q97 128 91 134T85 149Q85 171 107 171H128V192Q128 202 134 207.5T149 213Q171 213 171 192V171H192zM405 427Q427 427 427 405Q427 396 421 390T405 384H320Q310 384 304.5 390T299 405Q299 427 320 427H405zM405 341Q427 341 427 320T405 299H320Q299 299 299 320T320 341H405zM405 171Q427 171 427 149Q427 140 421 134T405 128H320Q310 128 304.5 134T299 149Q299 171 320 171H405z"     id="team-calculator" /></svg>
